!!!SOCIAL_FUNCTION:	bird dance songs
!!!PDT:	1956
!!!OTL: No_162_Switchgrass_Dance_Song_(l).krn
!!!LANG: Non-Tone
!!!LING_GROUP: Muskogean
!!!REG: Florida
**kern
*staff1
=1-
*clefF4
*k[f#]
*M3/4
2r
8r
16d\LL
16d\JJ
=2
(4d\
8B\L)
16d\L
16d\JJ
(8.d\L
16B\Jk)
=3||
*M2/4
(16.d\LL
32B\K)
(16.B\
32G\JJk)
8G\L
8G;\J
=4
16.E\LL
32G\JK
8G\J
16E\LK
8.G\J
=5||
*M5/8
8E\L
16.G\L
32E\JK
8D\
8D\
16G\L
16G\JJ
=6
8G\L
8E\
16.G\L
32E\JK
8G\
8G\J
=7||
*M3/4
8E\L
16.G\L
32E\JJk
4D\
4D\
==
*-
